!!!!SEGMENT: 055-1a-Sm-001.krn
!!!COM: Chopin, Fryderyk]
!!!OTL: Nocturne N. 1
!!!OPS: Op. 55
!!!PTL: Deux Nocturnes pour le Piano
!!!PPR: M. Schlesinger
!!!PPP: Paris
!!!NIFC-rismID: 1001042373
!!!NIFC-shelfmark: PL-Wbfc 4056/n
!!!OMD: Andante.
**kern	**kern	**dynam
*part1	*part1	*part1
*staff2	*staff1	*
*clefF4	*clefG2	*
*k[b-e-a-d-]	*k[b-e-a-d-]	*
*f:	*f:	*
*M4/4	*M4/4	*
*met(c)	*met(c)	*
4r	[>4cc	.
=1	=1	=1
*ped	*	*
4FF'	(>4cc]	p
*Xped	*	*
4f' 4c 4A-	4ff	[
*ped	*	*
4GG'	4ee-	.
4e-' 4B- 4E-	4dd-	.
*Xped	*	*
.	.	.
=2	=2	=2
*ped	*	*
4AA-'	8.ccL	.
.	16bnk	.
*Xped	*	*
4a-' 4c	8.cc	.
.	16dd-Jk	.
*ped	*	*
4EEn'	[>2cc)	.
4g' 4c 4B-X	.	.
*Xped	*	*
.	.	.
=3	=3	=3
*ped	*	*
4FF'	(>4cc]	.
*Xped	*	*
4f' 4c 4A-	4ff	.
*ped	*	*
4GG'	4ee-	.
4e-' 4B- 4E-	4dd-	.
*Xped	*	*
.	.	.
=4	=4	=4
*ped	*	*
4AA-'	8.ccL	.
.	16bnk	.
*Xped	*	*
4a-' 4c	8.cc	.
.	8qee-/	.
.	16dd-Jk	.
*ped	*	*
4EEn'	[>2cc)	.
*Xped	*	*
4g' 4c 4B-X	.	.
!!LO:LB:g=original
=5	=5	=5
*ped	*	*
4FF'	4cc]	.
*Xped	*	*
4f' 4c 4A-	(>4ff	.
*ped	*	*
4GG'	4ee-	.
4e-' 4B- 4E-	4dd-	.
*Xped	*	*
.	.	.
=6	=6	=6
*ped	*	*
4AA-'	2cc	.
*Xped	*	*
4a-' 4c	.	.
*ped	*	*
4BB-'	4b-T	.
.	16qqan/LL	.
.	16qqb-/JJ	.
4g-X' 4d- 4G-X	8.ccL	.
*Xped	*	*
.	16dd-Jk	.
=7	=7	=7
*	*^	*
*ped	*	*	*
4C'	2a-	2ryy	.
*Xped	*	*	*
4f' 4c 4A-	.	.	.
*ped	*	*	*
4CC'	4a-	4.en 4.B-:	.
4c' 4C	8.gL	.	.
.	.	8rc	.
*Xped	*	*	*
.	16fJk	.	.
*	*v	*v	*
=8	=8	=8
.	(<8qA-/	.
*ped	*	*
4FF'	2f))	.
*Xped	*	*
4c' 4A-	.	.
*ped	*	*
4FF'	4cc	.
4en' 4G	[>4cc	.
*Xped	*	*
.	.	.
=9	=9	=9
*ped	*	*
4FF'	(>4cc]	.
*Xped	*	*
4f' 4c 4A-	4ff	.
*ped	*	*
4GG'	4ee-	.
4e-' 4B- 4E-	4dd-	.
*Xped	*	*
.	.	.
!!LO:LB:g=original
=10	=10	=10
*ped	*	*
4AA-'	8.ccL	.
.	16bnk	.
*Xped	*	*
4a-' 4c	8.cc	.
.	16dd-Jk	.
*ped	*	*
4EEn'	[>2cc)	.
4g' 4c 4B-X	.	.
*Xped	*	*
.	.	.
=11	=11	=11
*ped	*	*
4FF'	(>4cc]	.
*Xped	*	*
4f' 4c 4A-	4ff	.
*ped	*	*
4GG'	4ee-	.
4e-' 4B- 4E-	4dd-	.
*Xped	*	*
.	.	.
=12	=12	=12
*ped	*	*
4AA-'	8.ccL	.
.	16bnk	.
*Xped	*	*
4a-' 4c	8.cc	.
.	8qee-/	.
.	16dd-Jk	.
*ped	*	*
4EEn'	[>2cc)	.
4g' 4c 4B-X	.	.
*Xped	*	*
.	.	.
=13	=13	=13
*ped	*	*
4FF'	(>4cc]	.
*Xped	*	*
4f' 4c 4A-	4ff	.
*ped	*	*
4GG'	4ee-	.
4e-' 4B- 4E-	4dd-	.
*Xped	*	*
.	.	.
=14	=14	=14
*ped	*	*
4AA-'	2cc	.
*Xped	*	*
4a-' 4c	.	.
.	16qqan/LL	.
.	16qqb-/JJ	.
*ped	*	*
4BB-'	2b-T>	.
4g-X' 4d- 4G-X	.	.
*Xped	*	*
.	.	.
.	(<32qqa/L	.
.	32qqb-/	.
.	32qqcc/	.
.	32qqee-/	.
!	!LO:TX:a:t=P:zakończenie łuku za 32qqqdd-:problem	!
.	32qqdd-/J))	.
!!LO:LB:g=original
=15	=15	=15
*	*^	*
*ped	*	*	*
4C'	(>2a-X	2ryy	.
*Xped	*	*	*
4f' 4c 4A-	.	.	.
.	8qB-/	.	.
*ped	*	*	*
!	!LO:TX:a:t=P:pionowy łuk od 4a- do 4.B-:problem	!	!
4CC'	(4a-	4.en 4.B-)	.
4c' 4C	8.gL	.	.
*Xped	*	*	*
.	.	8rc	.
.	16fJk	.	.
*	*v	*v	*
=16	=16	=16
.	(<8qA-/	.
*^	*	*
*ped	*	*	*
4rB	4FF'>	2f)	<
(>2c 2A-	4rBB	.	.
.	4F	4a-	.
4dn 4A-	4F-X	4a-	.
=17	=17	=17	=17
4rc	2E-	4b-/)	.
4d-X 4A-)	.	(>8dnL	[
.	.	8e-J	.
*ped	*	*	*
4EE-'<	2ryy	8fL	.
.	.	8e-	.
4d-' 4G	.	8a-	.
.	.	8b-J	.
*v	*v	*	*
=18	=18	=18
*ped	*	*
4AA-'	2cc	.
*Xped	*	*
4c' 4A- 4E-	.	.
*ped	*	*
4AA-'	4cc	.
4c' 4F 4Dn	4cc	.
*Xped	*	*
.	.	.
=19	=19	=19
*ped	*	*
4GG'	4ddn)	<
*Xped	*	*
4c' 4Fn 4Dn	(>8f#XL	.
.	8gJ	.
*ped	*	*
4GG'	8.a-L/	.
.	16g	.
4Bn' 4F	8cc	.
*Xped	*	*
.	8ddJ	.
!!LO:PB:g=original
=20	=20	=20
*ped	*	*
4CC'	2een	.
*Xped	*	*
4g' 4c 4B-	.	[
*ped	*	*
4C'	4ff	.
4a-' 4c 4A-	8.ee-XL	>
*Xped	*	*
.	16dd-Jk	.
=21	=21	=21
*ped	*	*
4C'	4dd-	.
*Xped	*	*
4e-' 4G	4cc	.
*ped	*	*
4C'	4dd-	.
4f' 4A- 4F	8.ccL	.
*Xped	*	*
.	16b-Jk	.
=22	=22	=22
*^	*	*
4rd	2C	4b-/	.
(>4c 4E-	.	4a-/	.
4rd	2C	4g/	.
.	.	8qb-/	.
4Bn 4F 4D-	.	8.a-L	.
.	.	16gJk	.
=23	=23	=23	=23
4rd	2C	4g	.
4c 4En	.	4g	.
4rd	2C	4g	.
.	.	8qb-/	.
(>[>4Bn [>4F 4D-)	.	8.a-L	.
.	.	16gJk	]]
=24	=24	=24	=24
!	!	!LO:TX:b:i:t=ritenuto.	!
4BnX] 4F]	2.C	4g	.
*ped	*	*	*
2B- 2En)	.	4cc	.
.	.	4cc	.
*Xped	*	*	*
4r	4ryy	[>4cc)	.
*v	*v	*	*
!!LO:LB:g=original
=25	=25	=25
!	!LO:TX:b:i:t=in tempo.	!
*ped	*	*
4FF'	(>4cc]	>
*Xped	*	*
4A-' 4C	4ff	.
*ped	*	*
4GG'	4ee-	.
4e-' 4B- 4E-	4dd-	.
*Xped	*	*
.	.	]
=26	=26	=26
*ped	*	*
4AA-'	8.ccL	.
.	16bnk	.
*Xped	*	*
4a-' 4c	8.cc	.
.	16dd-Jk	.
*ped	*	*
4EEn'	[>2cc)	.
4g' 4c 4B-X	.	.
*Xped	*	*
.	.	.
=27	=27	=27
*	*Xtuplet	*
*ped	*	*
4FF'	4cc]	.
4f' 4c 4A-	(>12eenL	.
*Xped	*	*
.	12gg	.
.	12ffJ	.
*ped	*	*
4GG'	12ee-XL\	.
.	12e-X	.
.	12b-J	.
4e-' 4B- 4E-	12ccL	.
*Xped	*	*
.	12ee-	.
.	12dd-J	.
=28	=28	=28
*ped	*	*
4AA-'	12ccL	.
.	12c	.
.	12e-J	.
4e-' 4A- 4E-	12a-L/	.
*Xped	*	*
.	12bn	.
.	12dd-J	.
*ped	*	*
4EEn'	[>2cc)	.
4g' 4c 4B-X	.	.
*Xped	*	*
.	.	.
=29	=29	=29
*ped	*	*
4FF'	(>4cc]	f
*Xped	*	*
4f' 4c 4A-	4ff	.
*ped	*	*
4GG'	4ee-	.
4e-' 4B- 4E-	4dd-	.
*Xped	*	*
.	.	.
!!LO:LB:g=original
=30	=30	=30
*ped	*	*
4AA-'	2cc	.
*Xped	*	*
4e-' 4c 4A- 4E-	.	.
.	16qqan/LL	.
.	16qqb-/JJ	.
*ped	*	*
4BB-'	2b-T	.
4g-X' 4d- 4G-X	.	.
*Xped	*	*
.	.	.
.	32qqa'/L	.
.	32qqb-'/	.
.	32qqcc'/	.
.	32qqdd-'/J	.
=31	=31	=31
*	*^	*
*ped	*	*	*
4C'	(>2a-X)	2ryy	.
4f' 4c 4A-	.	.	.
*Xped	*	*	*
.	.	.	.
.	(<8qB-/	.	.
*ped	*	*	*
4CC'	4a-	4.en 4.B-)	.
4c' 4C	8.gL	.	.
.	.	8rc	.
*Xped	*	*	*
.	16fJk	.	.
*	*v	*v	*
=32	=32	=32
.	8qA-/	.
*^	*	*
*ped	*	*	*
4rB	4FF'>	2f	.
(>2c 2A-	4rBB	.	.
.	.	.	p
.	4F	4a-	.
4dn 4A-	4F-X	4a-	.
=33	=33	=33	=33
4rc	2E-	4b-/	.
4d-X 4A-)	.	8dnL	.
.	.	8e-J	.
*ped	*	*	*
4EE-'	2ryy	8fL	.
.	.	8e-	.
4d-' 4G	.	8a-	.
*Xped	*	*	*
.	.	8b-J	.
*v	*v	*	*
=34	=34	=34
*ped	*	*
4AA-'	2cc	.
*Xped	*	*
4c' 4A- 4E-	.	.
*ped	*	*
4AA-'	4cc	.
4c' 4F 4Dn	4cc	.
*Xped	*	*
.	.	.
!!LO:LB:g=original
=35	=35	=35
*ped	*	*
4GG'	4ddn	<
4c' 4Fn 4Dn	8f#XL	.
*Xped	*	*
.	8gJ	.
*ped	*	*
4GG'	8.a-L/	.
.	16g	.
4Bn' 4F 4D	8cc	.
*Xped	*	*
.	8ddJ	.
=36	=36	=36
*ped	*	*
4CC'	2een	[
*Xped	*	*
4g' 4c 4B-	.	.
*ped	*	*
4C'	4ff	.
4a-' 4c 4A-	8.ee-XL	.
*Xped	*	*
.	16dd-J	.
=37	=37	=37
*ped	*	*
4C'	4dd-	.
*Xped	*	*
4e-' 4G	4cc	.
*ped	*	*
4C'	4dd-	.
4f' 4A- 4F	8.ccL	.
*Xped	*	*
.	16b-Jk	.
=38	=38	=38
*^	*	*
4rd	2C	4b-/	.
(>4c 4E-	.	4a-/	.
4rd	2C	4g/	.
.	.	8qb-/	]
4Bn 4F 4D-	.	8.a-L	.
.	.	16gJk	.
=39	=39	=39	=39
4rd	2C	4g	.
4c 4En	.	4g	.
4rd	2C	4g	.
.	.	8qb-/	.
[>4Bn 4F 4D-	.	8.a-L	.
.	.	16gJk	.
!!LO:LB:g=original
=40	=40	=40	=40
!	!	!LO:TX:b:i:t=ritenuto.	!
4BnX] 4F	2.C	4g	.
*ped	*	*	*
2B-X 2En)	.	4cc	.
.	.	4cc	.
*Xped	*	*	*
4r	4ryy	[>4cc)	>
*v	*v	*	*
=41	=41	=41
*ped	*	*
4FF'	(>4cc]	.
*Xped	*	*
4A-' 4C	4ff	.
*ped	*	*
4GG'	4ee-	.
4e-' 4B- 4E-	4dd-	]
*Xped	*	*
.	.	.
=42	=42	=42
*ped	*	*
4AA-'	8.ccL	.
.	16bnk	.
*Xped	*	*
4a-' 4c	8.cc	.
.	8qee-/	.
.	16dd-Jk	.
*ped	*	*
4EEn'	[>2cc)	.
4g' 4c 4B-X	.	.
*Xped	*	*
.	.	.
=43	=43	=43
*ped	*	*
4FF'	(>4cc]	.
4f' 4c 4A-	12eenL	.
*Xped	*	*
.	12gg	.
.	12ffJ	.
*ped	*	*
4GG'	12ee-XL\	.
.	12e-X	.
.	12b-J	.
4e-' 4B- 4E-	12ccL	.
*Xped	*	*
.	12ee-	.
.	12dd-J	.
=44	=44	=44
*ped	*	*
4AA-'	14ccL	.
.	14c	.
.	14e-	.
.	14a-	.
4c' 4E-	.	.
*Xped	*	*
.	14bn	.
.	14cc	.
.	8qee-/	.
.	14dd-J	.
*ped	*	*
4EEn'	[>2cc	.
4g' 4c 4B-X	.	.
*Xped	*	*
.	.	.
!!LO:PB:g=original
=45	=45	=45
*ped	*	*
4FF'	4cc]	f
*Xped	*	*
4f' 4c 4A-	4ff	.
*ped	*	*
4GG'	4ee-	.
4e-' 4B- 4E-	4dd-	.
*Xped	*	*
.	.	.
=46	=46	=46
*ped	*	*
4AA-'	2cc	.
4a-' 4e- 4c	.	.
*Xped	*	*
.	.	.
.	16qqan/LL	.
.	16qqb-/JJ	.
*ped	*	*
4BB-'	2b-T	.
4g-X' 4d- 4G-X	.	.
*Xped	*	*
.	.	.
.	16qqa-y'/L	.
.	16qqb-'/	.
.	16qqbn'/	.
.	16qqcc'/	.
.	16qqee-'/	.
.	16qqdd-'/J	.
=47	=47	=47
*	*^	*
*ped	*	*	*
4C'	(>2a-)	2ryy	.
*Xped	*	*	*
4f' 4c 4A-	.	.	.
.	8qB-/	.	.
*ped	*	*	*
!	!LO:TX:a:t=P:pionowy łuk od 4a- do 4.B-:problem	!	!
4CC'	4a-	4.en 4.B-	.
4c' 4C	8.gL	.	.
.	.	8rc	.
*Xped	*	*	*
.	16fJk	.	.
*	*v	*v	*
=48	=48	=48
*Xtuplet	*Xtuplet	*
4C 4FF\	4f 4A-)	.
(<12BBnL\	(>12Bn<L	ff
!	!LO:TX:a:t=Più mosso.	!
12C	12c</	.
12D-J	12d-<J	.
12CL\	12c<L	.
12GG	12G</	.
12BB-XJ	12B-X<J	.
12AA-L\	12A-<L	.
12EEn	12En</	.
12GGJ)	12G<J)	.
=49	=49	=49
*ped	*	*
4FF	4F<''>/	.
2f> 2c> 2F	(>2ff 2a-/	>
*Xped	*	*
4f> 4d-> 4F	4ff 4b- 4g/	]
!!LO:LB:g=original
=50	=50	=50
4c> 4F	4ff 4cc 4a- 4f/)	.
(<12BBnL\	(>12Bn<L	.
12C	12c</	.
12D-J	12d-<J	.
12CL\	12c<L	.
12GG	12G</	.
12BB-XJ	12B-X<J	.
12AA-L\	12A-<L	.
12EEn	12En</	.
12FFJ)	12G<J)	.
=51	=51	=51
*ped	*	*
4GG\	4B-<''>/	.
2c 2G	(>2ee- 2g 2e-\	>
4Bn 4G	4ddn 4g 4f\	]
*Xped	*	*
.	.	.
=52	=52	=52
.	8qddn/	.
8.cL 8.G 8.C	8.ccL 8.g 8.e-\	.
16dnJk 16G 16C	(>16bnJk 16g 16f)	.
4c 4G 4C	4cc 4g 4e-)\	.
(<12FF#XL\	(>12F#X<L	.
12GG	12G</	.
12AA-J	12A-<J	.
12GGL\	12G<L	.
12DDn	12Dn</	.
12EE-J)	12E-<J)	.
!!LO:LB:g=original
=53	=53	=53
*ped	*	*
4CC\	4C<''>/	.
2c 2G 2C	(>2cc 2e-\	>
4c 4A- 4D	4cc 4f 4dn\	]
*Xped	*	*
.	.	.
=54	=54	=54
4c 4G 4C	4cc 4g 4e-)\	.
(<12FF#XL\	(>12F#X<L	.
12GG	12G<	.
12AA-J	12A-<J/	.
12GGL\	12G<L	.
12DDn	12Dn</	.
12FFnJ	12Fn<J	.
12EE-L\	12E-<L	.
12BBBn	12BBn</	.
12CCJ)	12C<J)	.
*tuplet	*tuplet	*
=55	=55	=55
*ped	*	*
4DDn\	4Dn<'>/	.
2G 2D-	(>2b- 2dn 2B-	>
4F#X 4D-	4an 4d 4c	]
*Xped	*	*
.	.	.
=56	=56	=56
.	(<8qan/	.
8.GL 8.Dn 8.GG\	8.gL 8.dn 8.B-))	.
16AnJk 16D 16GG	(>16f#XJk 16d 16c	.
!LO:TX:a:t=P:pionowy łuk od 4B do 4GG:problem	!	!
4B- 4D 4GG)	4g 4d 4B-	.
2r	(>4g)	p
.	4g	.
!!LO:LB:g=original
=57	=57	=57
*	*Xtuplet	*
*ped	*	*
!LO:TX:a:t=P:note-head-side tuplet number:problem	!	!
(>12EEnL	2dd-X	.
12D-X	.	.
12BB-J	.	.
*Xped	*	*
4G)	.	.
*ped	*	*
!LO:TX:a:t=P:note-head-side tuplet number:problem	!	!
(>12EEL	12ccL	.
12D-	12dd-	.
12BB-J	12ccJ	.
4G)	12dd-L	.
*Xped	*	*
.	12ee-	.
.	12dd-J	.
=58	=58	=58
*	*^	*
*ped	*	*	*
!LO:TX:a:t=P:note-head-side tuplet number:problem	!	!	!
(>12FFL	4cc	4b-	>
12C	.	.	.
12AA-J	.	.	.
*Xped	*	*	*
4A-)	4ff	4a-	.
*ped	*	*	*
!LO:TX:a:t=P:note-head-side tuplet number:problem	!	!	!
(>12AA-L	2ff))	4g	.
12F	.	.	.
12CJ	.	.	.
4c)	.	4f	.
*Xped	*	*	*
.	.	.	.
=59	=59	=59	=59
*ped	*	*	*
*Xtuplet	*	*	*
!	!LO:TX:a:t=P:pionowy łuk od 2dd- do 2f:problem	!	!
(>12GGL	(2dd-\	2f	]
12F	.	.	.
12D-J	.	.	.
*Xped	*	*	*
4B-)	.	.	<
*ped	*	*	*
(>12GGL	12ccL	2en	.
12En	12dd-	.	.
12D-J	12ccJ	.	.
4B-)	12dd-L	.	.
.	12ee-	.	.
*Xped	*	*	*
.	12dd-J	.	.
=60	=60	=60	=60
*ped	*	*	*
(>12AA-L	4cc	2g	.
12G	.	.	.
12CJ	.	.	.
*Xped	*	*	*
4c)	4ff	.	.
*ped	*	*	*
(>12AA-L	2ryy	2f 2ff)	.
12F	.	.	[
12CJ	.	.	.
4c)	.	.	.
*Xped	*	*	*
.	.	.	.
!!LO:LB:g=original
=61	=61	=61	=61
*ped	*	*	*
!	!LO:TX:a:t=P:pionowy łuk od 2gg-X do 1ee-:problem	!	!
(>12AAnL	2gg-X	(>1ee-	>
12G-X	.	.	.
12E-J	.	.	.
*Xped	*	*	*
4c)	.	.	.
*ped	*	*	*
(>12AAL	12ffL	.	.
12G-	12gg-	.	.
12E-J	12ffJ	.	.
4c)	12gg-L	.	.
*Xped	*	*	*
.	12aa-	.	.
.	12gg-J	.	.
=62	=62	=62	=62
*ped	*	*	*
(>12BB-L	4ff	4ee-	.
12F	.	.	.
12D-J	.	.	.
*Xped	*	*	*
4d-)	4bb-	4dd-	.
*ped	*	*	*
(>12D-L	2bb-)	4cc	.
12B-	.	.	.
12FJ	.	.	.
4f)	.	4b-	]
*Xped	*	*	*
.	.	.	.
=63	=63	=63	=63
*ped	*	*	*
!	!LO:TX:a:t=P:pionowy łuk od 2gg-X do 2b-:problem	!	!
(>12CL	(>2gg-X	2b-	<
12B-	.	.	.
12G-XJ	.	.	.
*Xped	*	*	*
4e-)	.	.	.
*ped	*	*	*
(>12CL	12ffL	2an	.
12An	12gg-	.	.
12FJ	12ffJ	.	.
4e-)	12gg-L	.	.
*Xped	*	*	*
.	12aa-X	.	.
.	12gg-J	.	.
=64	=64	=64	=64
*ped	*	*	*
(>12D-L	4ff	2cc	.
12c	.	.	.
12FJ	.	.	.
*Xped	*	*	*
4f)	4bb-	.	.
*ped	*	*	*
(>12D-L	2bb-	2b-	.
12B-	.	.	.
12FJ	.	.	.
4f)	.	.	[[
*Xped	*	*	*
.	.	.	.
!!LO:PB:g=original
=65	=65	=65	=65
*ped	*	*	*
!LO:TX:b:t=P:mixed beam:problem	!	!	!
(>12DD-'<L/	2bb-	1dd- 1b-	f
12B-\	.	.	>
12G-XJ\	.	.	.
4g-X)	.	.	.
(>12D-L	4.aa-	.	.
12B-	.	.	.
12G-J	.	.	.
4g-)	.	.	.
.	8gg-y	.	.
=66	=66	=66	=66
!	!	!LO:TX:a:t=P:1b- za 2gg-X 2g-X:problem	!
(>12D-L	2gg-X 2g-X	1b-	.
12B-	.	.	.
12G-XJ	.	.	.
4d-)	.	.	.
(>12D-L	2ff 2f	.	.
12B-	.	.	.
*Xped	*	*	*
12G-J	.	.	.
4d-)	.	.	.
=67	=67	=67	=67
*	*	*	*^
*ped	*	*	*	*
!	!	!LO:TX:a:t=P:1b- za 2ff 2f:problem	!	!
!	!	!	!	!LO:HP:vg=1
(>12D-L	2ff 2f	1b-	.	>
12B-	.	.	.	.
12GnJ	.	.	.	.
4d-)	.	.	.	.
(>12D-L	[>2een [<2en	.	.	.
12B-	.	.	.	.
12GJ	.	.	.	.
4d-)	.	.	.	.
=68	=68	=68	=68	=68
(>12D-L	2b-	2eenX] 2enX]/	]	.
12B-	.	.	.	.
12GJ	.	.	.	.
4d-)	.	.	<	.
!	!LO:TX:a:t=P:2b- za 2.ee 4.e:problem	!	!	!
(>12D-L	2b-\	4.ee 4.e/	.	.
*Xped	*	*	*	*
12B-	.	.	.	.
12GJ	.	.	.	.
4d-)	.	.	.	.
.	.	8ff 8f/	.	.
*	*v	*v	*	*
*	*	*v	*v
!!LO:LB:g=original
=69	=69	=69
4c-X 4A- 4D-	4ff 4a- 4f/)	[
4r	(>16fffLL	f
.	16eee-	.
.	16ddd-	.
.	16cccJJ	.
!	!LO:TX:b:i:t=rallentando:dur=6q:ext=cd:problem:text with extension lines	!
2r	16ccc-XLL	.
.	16aa-	.
.	16gg	.
.	16ffJJ	.
.	16eenLL	.
.	16ff	.
.	16ee-X	.
.	16dd-JJ	.
=70	=70	=70
1rF	16ccLL	.
.	16cc-X	.
.	16a-	.
.	16gJJ	.
.	16b-LL	.
.	16a-	.
.	16g	.
.	16fJJ	.
.	16enLL	.
.	16f	.
.	16e-X	.
.	16d-JJ	.
.	16cnLL	.
.	16d-	.
.	16A-	.
.	16B-JJ)	.
=71	=71	=71
*^	*	*
!	!	!LO:TX:a:i:t=stretto.	!
8rYY	8ryy	(>4c	<
4G 4En	(<4En 4C	.	.
.	.	4d-	.
4A- 4F	4C-X	.	.
.	.	4f	.
4dn 4A-	4BB-	.	.
.	.	4en	.
[>8d [>8G#X	[8EEn	.	[
=72	=72	=72	=72
8dnX] 8G#X]	8EEnX]	4en	.
4c#X 4Gn	4AAn	.	.
!	!	!LO:TX:a:i:t=ritenuto.	!
.	.	4f	.
4cn 4F	4AA-X	.	.
.	.	4a-)	.
4f> 4Bn>\	4GG	.	.
.	.	8.g;>	.
16en> 16B-X>\	16CC);>	.	.
16r	16rFF>	(>16cc/	.
*v	*v	*	*
!!LO:LB:g=original
=73	=73	=73
!	!LO:TX:a:B:t=Tempo 1.	!
*ped	*	*
4FF'	4cc	p
*Xped	*	*
4f' 4c 4A-	4ff	.
*ped	*	*
4GG'	4ee-	.
4e-' 4B- 4E-	4dd-	.
*Xped	*	*
.	.	.
=74	=74	=74
*ped	*	*
4AA-'	8.ccL	.
.	16bnk	.
*Xped	*	*
4a-' 4c	8.cc	.
.	16dd-Jk	.
*ped	*	*
4EEn'	[>2cc	.
4g' 4c 4B-	.	.
*Xped	*	*
.	.	.
=75	=75	=75
*ped	*	*
4FF'	4cc]	.
4f' 4c 4A-	12eenL\	.
*Xped	*	*
.	12gg	.
.	12ffJ	.
*ped	*	*
4GG'	12ee-XL\	.
.	12e-X	.
.	12b-J	.
4e-' 4B- 4E-	12ccL	.
.	12ee-	.
*Xped	*	*
.	12dd-J	.
=76	=76	=76
*ped	*	*
4AA-'	12ccL/	.
.	12c	.
.	12e-J	.
4c' 4A- 4E-	12a-L/	.
*Xped	*	*
.	12bn	.
.	12dd-J	.
*ped	*	*
4EEn'	[>2cc	.
4g' 4c 4B-X	.	.
*Xped	*	*
.	.	.
!!LO:LB:g=original
=77	=77	=77
*ped	*	*
!	!LO:TX:a:t=P:pojedyncze zakończenie łuku/ligatury:problem	!
4FF'	4cc])	.
*clefG2	*	*
*	*8va	*
!	!LO:TX:b:i:t=molto legato e stretto:dur=4q:ext=s:problem:text with extention lines	!
4a-X' 4c	(>12ffL\	.
*Xped	*	*
.	12fff	.
.	12ffJ	.
*clefF4	*	*
*ped	*	*
4F'	12eeenL	.
.	12gg	.
.	12eeeJ	.
*clefG2	*	*
4cc' 4f 4c	12aa-L	.
*Xped	*	*
.	12eee-X	.
.	12aanJ	.
*clefF4	*	*
=78	=78	=78
*ped	*	*
4BB-'	12dddnL	.
.	12bb-	.
.	12dddJ	.
*clefG2	*	*
4b-' 4f 4d-	12ddd-XL	.
*Xped	*	*
.	12dd-X	.
.	12ddd-J	.
*clefF4	*	*
*ped	*	*
4C'	12cccL	.
.	12ddn	.
.	12cccJ	.
*clefG2	*	*
4b-' 4g 4c	12ee-XL	.
*Xped	*	*
.	12bb-	.
.	12eenJ	.
*clefF4	*	*
=79	=79	=79
*ped	*	*
4D-'	12bb--L	.
.	12ff	.
.	12bb--J	.
*	*X8va	*
!	!LO:TX:a:t=loco.	!
4f' 4d- 4A-	12aa-L	.
*Xped	*	*
.	12a-	.
.	12aa-J	.
*ped	*	*
4BB-'	12aa--L	.
.	12dd-	.
.	12aa--J	.
4d-' 4B-	12gg-XL	.
*Xped	*	*
.	12g-X	.
.	12gg-J	.
=80	=80	=80
*ped	*	*
4C'	12ffL	.
.	12f	.
.	12a-J	.
4c' 4A-	12ccL	.
*Xped	*	*
.	12ee-	.
.	12dd-J	.
*ped	*	*
4CC'	12ccL	.
.	12en	.
.	12gJ	.
4c' 4G	12bnL	.
*Xped	*	*
.	12cc	.
.	12b-XJ	.
!!LO:LB:g=original
=81	=81	=81
*ped	*	*
4FF'	12anL	.
.	12a-X	.
.	12fJ	.
4c' 4A- 4C	12ffL	.
*Xped	*	*
.	12f	.
.	12ffJ	.
*ped	*	*
4FF'	12gL	.
.	12een	.
.	12a-J	.
4f' 4c 4F	12ee-XL	.
*Xped	*	*
.	12an	.
.	12ee-J	.
=82	=82	=82
*ped	*	*
4BB-'	12ddnL	.
.	12b-	.
.	12ddJ	.
4f' 4B-	12dd-XL	.
*Xped	*	*
.	12d-X	.
.	12dd-J	.
*ped	*	*
4C'	12dnL	.
.	12cc	.
.	12e-J	.
4c' 4G	12b-L	.
*Xped	*	*
.	12en	.
.	12b-J	.
=83	=83	=83
*^	*	*
*ped	*	*	*
4D-/	4DD-'/	12b--L	<
.	.	12f	.
.	.	12b--J	.
*Xped	*	*	*
2.ryy	(>4A- 4D-	12a-L	.
.	.	12d-	.
.	.	12a-J	[>
.	4B- 4BB-	12g-XL	.
.	.	12d-	.
.	.	12g-J	.
.	4A- 4C-X	12fL	.
.	.	12d-	.
.	.	(<12fJ	]
*v	*v	*	*
!!LO:PB:g=original
=84	=84	=84
4B- 4BB-	12g-XL)	>
.	12d-	.
.	12g-J	.
4A- 4C-X	12fL	.
.	12d-	.
.	12fJ	]
4A- 4Cn	12ccL	.
.	12c	.
.	12fJ	.
4G) [<4C	12enL	.
.	12B-	.
.	12cJ	.
=85	=85	=85
*^	*	*
*	*	*	*^
4C]\	[1FF	12fL	.	.
.	.	12A-<	.	.
!	!	!	!	!LO:HP:b=2
.	.	12cJ	.	>
(>4G-X\	.	12An<L	<	.
.	.	12c	.	.
.	.	12e-J	.	.
4F\	.	12g-XL	.	.
.	.	12an	.	.
.	.	12ccJ	.	.
4E-\	.	12ee-L	.	.
.	.	12gg-X	.	.
.	.	12aanJ	.	]]
*	*	*	*v	*v
=86	=86	=86	=86
*ped	*	*	*
!	!LO:TX:t=P:1FF za 2E-:problem	!	!
2E-\	1FF]	12ggg-XL	[
.	.	12ccc	>
.	.	12eee-J	.
.	.	12aanL	.
.	.	12gg-X	.
.	.	12ccJ	.
4F\	.	12ee-L	.
*Xped	*	*	*
.	.	12an	.
.	.	12g-XJ	.
4E-)\	.	12cL	]
.	.	12e-	.
.	.	12AnJ	.
!!LO:LB:g=original
=87	=87	=87	=87
*ped	*	*	*
!	!LO:TX:t=P:1FF za 2D-:problem	!	!
2D-\	[1FF	12B-<L	.
.	.	12F</	.
!	!	!	!LO:HP:b=2
.	.	12Gn<J	>
.	.	12B-L	.
.	.	12d-	.
.	.	12fJ	.
4.C\	.	12gL	.
*Xped	*	*	*
.	.	12b-	.
.	.	12dd-J	.
.	.	12ffL	.
.	.	12gg	.
8BB-\	.	.	.
.	.	12bb-J	]
=88	=88	=88	=88
*ped	*	*	*
2BB-\	1FF]	12ddd-L	.
!	!	!	!LO:HP:b=2
.	.	12gg	<
.	.	12bb-J	.
.	.	12eenL	.
.	.	12dd-	.
.	.	12gJ	.
2D-\	.	12b-L	.
.	.	12en	.
.	.	12d-J	.
.	.	12G<L	.
.	.	12B-</	[
*Xped	*	*	*
.	.	12En<J	.
=89	=89	=89	=89
!	!LO:TX:b:t=P:brak rozpoczęcia ligatur przy 1C 1FF:problem	!	!
2ryy	[<1C [<1FF	12F<L	>
.	.	12An<	.
.	.	12cJ	.
.	.	12fL	.
.	.	12B-	.
.	.	12cJ	.
!LO:TX:b:t=P:brak rozpoczęcia ligatury przy 2Any:problem	!	!	!
[>2Any\	.	12A<L	.
!	!	!LO:TX:t=cresc _:problem:dynamics with extention lines	!
!	!	!	!LO:HP:b:i:t=cresc
.	.	12c	]<
.	.	12fJ	.
.	.	12anL	.
.	.	12dn	.
.	.	12fJ	.
*v	*v	*	*
!!LO:LB:g=original
=90	=90	=90
1AnX_ [1C] [1FF]	12cL	.
.	12f	.
.	12anJ	.
.	12ccL	[
!	!LO:TX:t=dim_:problem:dynamics with extention lines	!
!	!	!LO:HP:b:i:t=dim
.	12g	>
.	12aJ	.
.	12fL	.
.	12a	.
.	12ccJ	.
.	12ffL	.
.	12b-	]
!	!LO:TX:b:i:t=ed-accel-:dur=25qs:ext=ud:problem:text wtih extention lines	!
.	12ccJ	.
=91	=91	=91
1AnX_ 1C_ 1FF_	12anL	.
.	12cc	.
.	12ffJ	.
.	12aanL	.
.	12ddn	.
.	12ffJ	.
.	12ccL	.
.	12ff	.
.	12aaJ	.
.	12cccL	.
.	12gg	.
.	12aaJ	.
=92	=92	=92
*	*8va	*
*ped	*	*
1AnX_ 1C] 1FF_	12ffL	.
.	12aan	.
.	12cccJ	.
.	12fffL	.
.	12bb-	.
.	12cccJ	.
.	12aaL	.
.	12ccc	.
.	12fffJ	.
.	12aaanL	.
.	12dddn	.
.	12fffJ	.
!!LO:LB:g=original
=93	=93	=93
1AnX_ [1C 1FF_	12cccL	.
.	12fff	.
.	12aaanJ	.
.	12ccccL	.
.	12ggg	.
.	12aaaJ	.
.	12fffL	.
.	12aaa	.
.	12ccccJ	.
.	12ffffL	.
.	12ggg	.
.	12aaaJ	.
=94	=94	=94
1AnX_ 1C_ 1FF_	12fffL	.
.	12aaan	.
.	12ccccJ	.
.	12ffffL	.
.	12ggg	.
.	12aaaJ	.
.	12fffL	.
.	12aaa	.
.	12ccccJ	.
.	12ffffL	.
.	12ggg	.
.	12aaaJ	.
=95	=95	=95
1AnX_ 1C] 1FF_	12fffL	.
.	12aaan	.
.	12ccccJ	.
.	12ffffL	.
.	12ggg	.
.	12aaaJ	.
.	12fffL	.
.	12aaa	.
.	12ccccJ	.
.	12ffffL	.
.	12ggg	.
.	12aaaJ)	.
!!LO:LB:g=original
=96	=96	=96
1AnX_ [1C 1FF_	12fffL	.
.	12aaan	.
.	12ccccJ	.
.	12ffffL	.
.	12ggg	.
.	12aaaJ	.
.	12fffL	.
.	12aaa	.
.	12ccccJ	.
.	12ffffL	.
.	12ggg	.
*Xped	*	*
.	12aaaJ	.
=97	=97	=97
4AnX] 4C] 4FF]\	4fff	.
4r	4r	.
*	*X8va	*
2r	2r	.
!	!LO:TX:a:t=loco.	!
.	.	.
=98	=98	=98
*	*^	*
!	!LO:TX:b:i:t=in tempo.	!	!
2BB- 2BBB-	(>2dd- 2f 2d-/	1g	>
2C 2CC	2cc 2en 2B-/	.	.
.	.	.	]
*	*v	*v	*
=99	=99	=99
!LO:TX:b:t=P:pionowy łuk 1F 1C 1FF 1an:problem	!LO:TX:a:t=P:pionowy łuk 1an 1f 1c 1An<:problem	!
1F 1C 1FF	1an 1f 1c 1An<	.
=100	=100	=100
!LO:TX:b:t=P:pionowy łuk 2F 2C 2FF:problem	!LO:TX:a:t=P:pionowy łuk 2an'> 2f 2c 2An<:problem	!
2F 2C 2FF\	(>2an'> 2f 2c 2An<)	f
!LO:TX:b:t=P:pionowy łuk 2F 2C 2FF:problem	!LO:TX:a:t=P:pionowy łuk 2a'> 2f 2c 2An<:problem	!
2F 2C 2FF\	2a'> 2f 2c 2A<	.
=101	=101	=101
!LO:TX:b:t=P:pionowy łuk 1F 1C 1FF:problem	!LO:TX:a:t=P:pionowy łuk 1an 1f 1c 1An<:problem	!
1F 1C 1FF;<	1an 1f 1c 1An<);>	.
==	==	==
*-	*-	*-
!!!title: @{OTL}; @{OPS} @{ONM} publisher: @{PPR}
!!!RDF**kern: > = above
!!!RDF**kern: < = below
!!!RDF**dynam: > = "dim.", fontstyle= "italic"
!!!ENC: Wojciech Jakubiak-Danek
!!!END: 2018-07-31
!!!EED: Tomasz Sierawski
!!!EST: 2018-08-03 
!!!EED2:Emilia Ziętek
!!!EST2: 2019-08-05
!!!rism-genre: Nocturne
!!!rism-key: F minor
!!!rism-opus: op.  55, no. 1
!!!rism-title: Nocturne in F minor op.  55, no. 1
!!!rism-permalink: https://opac.rism.info/search?id=1001042373&View=rism
!!!rism-773a-OPR: 1001042372
!!!rism-parent-permalink: https://opac.rism.info/search?id=1001042372&View=rism
